X:1
T:James Gibb editions
T:Since thou, O fondest - Parry
T:#
%%score [ 1 2 3 4 ]
L:1/8
Q:1/4=92
M:4/4
K:D
V:1 treble nm="Soprano" snm="S"
V:2 treble nm="Alto" snm="A"
V:3 treble-8 nm="Tenor" snm="T"
V:4 bass nm="Bass" snm="B"
V:1
"^Since thou, O fondest""^C. H. H. Parry\n(1848-1918)"!p!"^andantino" F2 | %1
w: Since|
!<(! A2 d2!<)!"^Robert Bridges\n(1844-1930)" f2 e!>(!c | B2!>)! A2 z2!p! F2 | %3
w: thou, O fond- est and|tru- est, hast|
!<(! A2 d2!<)! !>!f2 z!p! F |!>(! E2!>)! D2 z2 D2 |[M:4/4] F2!<(! B2!<)! d3!>(! c!>)! | %6
w: loved me best and|long- est, And|now with trust the|
 !>!c2 B2 z2 c2 |!<(! A2 B!<)!c!f!!>(! e3!>)! d | B2 A2 z2!p! A2 | A2 =c2 c2!<(! BF!<)! | %10
w: strong- est the|joy of my heart re-|new- est; Since|thou art dear- er and|
!>(! F2 G2!>)! z2"^cresc." G2 | =c2 e2 (e2- d)A | =c2 B2 z2!mf! B2 |"^legato"!>(! d2 cd!>)! D3 D | %14
w: dear- er while|o- ther hearts * grow|cold- er, And|ev- er, as love is|
 G2 F2 z2!p! A2 | d2 cd D3 D | B2 A2 z2 F2 |[Q:1/4=80] F2 ED A3 F | %18
w: old- er, more|lov- ing- ly draw- est|near- er, more|lov- ing- ly draw- est|
 E2 D2"^a tempo" !fermata!z2[Q:1/4=92] F2 |!<(! A2 d2!<)!!>(! f2 ec!>)! | B2 A2 z2!p! F2 | %21
w: near- er. Since|now I see in the|mea- sure of|
!<(! A2 d2!<)!!>(! f2 FE!>)! | E2 D2 z2 D2 | F2 B2 d2!<(! c>d!<)! | c2 B2 z2 c2 | %25
w: all my giv- ing and|tak- ing, Thou|wert my hand in the|mak- ing, the|
!<(! A2 Bc!<)! e2 c^G | !>!B2 A2 z2!p! A2 | A2 B=c B3 F | A2 G2 z2"^cresc." G2 | (=c2 d)e e2 dA | %30
w: sense and the soul of my|plea- sure; The|good I have ne'er re-|paid thee, in|heav'n * I pray be re-|
 =c2 B2 z2"^legatissimo"!p! B2 | (d2 c)d D3 D | G2 F2 z2!pp! A2 | (d2 c)d D3 D | %34
w: cor- ded And|all * thy love re-|ward- ed, and|all * thy love re-|
 B2 A2 z2!<(! F2!<)! | (!>!F2 E)D!>(! B2 AF!>)! | E2 D2 z2!mf![Q:1/4=75] F2 | %37
w: ward- ed, by|God, * thy mas- ter that|made thee, by|
!<(! d3 f!<)!!f! (fd)!>(!BF!>)! |!p!!<(! (F2 G2!<)!!>(! A4)!>)! |!pp! A8 |] %40
w: God, thy mas\- * ter that|made * *|thee.|
V:2
!p! D2 |!<(! D2 F2!<)! A2 A!>(!E | E2!>)! F2 z2!p! F2 |!<(! D2 F2!<)! !>!F2 z!p! C | %4
w: Since|thou, O fond- est and|tru- est, hast|loved me best and|
!>(! C2!>)! B,2 z2 D2 |[M:4/4] B,2!<(! D2!<)! F3!>(! F!>)! | !>!F2 F2 z2 ^E2 | %7
w: long- est, And|now with trust the|strong- est the|
!<(! F2 ^G!<)!A!f!!>(! (A!>)!FG)G | ^G2 A2 z2!p! E2 | ^D2 E2 F2!<(! FD!<)! | %10
w: joy of my heart * * re-|new- est; Since|thou art dear- er and|
!>(! ^D2 E2!>)! z2"^cresc." E2 | E2 A2 A3 A | F2 G2 z2!mf! B2 |"^legato"!>(! d2 cd!>)! D3 D | %14
w: dear- er while|o- ther hearts grow|cold- er, And|ev- er, as love is|
 D2 D2 z2!p! A2 | d2 cd D3 D | D2 D2 z2 D2 | D2 B,D (DEB,)C | C2 D2 !fermata!z2 D2 | %19
w: old- er, more|lov- ing- ly draw- est|near- er, more|lov- ing- ly draw\- * * est|near- er. Since|
!<(! D2 F2!<)!!>(! A2 AE!>)! | E2 F2 z2!p! F2 |!<(! D2 F2!<)!!>(! F2 CC!>)! | C2 B,2 z2 B,2 | %23
w: now I see in the|mea- sure of|all my giv- ing and|tak- ing, Thou|
 B,2 F2 F2!<(! F>F!<)! | F2 F2 z2 ^E2 |!<(! F2 ^GA!<)! (cF)GG | !>!^G2 A2 z2!p! E2 | E2 EE ^D3 D | %28
w: wert my hand in the|mak- ing, the|sense and the soul * of my|plea- sure; The|good I have ne'er re-|
 F2 E2 z2"^cresc." E2 | (E2 A)A A2 AA | A2 G2 z2!p! B2 | (d2 c)d D3 D | D2 D2 z2!pp! A2 | %33
w: paid thee, in|heav'n * I pray be re-|cor- ded And|all * thy love re-|ward- ed, and|
 (d2 c)d D3 D | D2 D2 z2!<(! D2!<)! | !>!D2 z D!>(! D2 CC!>)! | C2 D2 z2!mf! F2 | %37
w: all * thy love re-|ward- ed, by|God, thy mas- ter that|made thee, by|
!<(! F3 B!<)!!f! B2!>(! FD!>)! |!p!!<(! (D4- D!<)!!>(!EB,C)!>)! |!pp! D8 |] %40
w: God, thy mas- ter that|made * * * *|thee.|
V:3
!p! A2 |!<(! A2 A2!<)! d2 c!>(!A | c2!>)! d2 z2!p! A2 |!<(! A2 A2!<)! !>!^A2 z!p! A | %4
w: Since|thou, O fond- est and|tru- est, hast|loved me best and|
!>(! ^A2!>)! B2 z2 B2 |[M:4/4][K:treble-8] B2!<(! B2!<)! B3!>(! c!>)! | !>!d2 d2 z2 c2 | %7
w: long- est, And|now with trust the|strong- est the|
!<(! c2 B!<)!A!f!!>(! B3!>)! e | d2 c2 z2!p! c2 | =c2 A2 A2!<(! BB!<)! | %10
w: joy of my heart re-|new- est; Since|thou art dear- er and|
!>(! =c2 B2!>)! z2"^cresc." B2 | A2 =c2 c2- d_e | _e2 d2 z2!mf! B2 |"^legato"!>(! d2 cd!>)! D3 D | %14
w: dear- er while|o- ther hearts * grow|cold- er, And|ev- er, as love is|
 G2 A2 z2!p! A2 | d2 cd D3 D | G2 A2 z2 A2 | A2 ^GG E3 A | !courtesy!=G2 F2 !fermata!z2 A2 | %19
w: old- er, more|lov- ing- ly draw- est|near- er, more|lov- ing- ly draw- est|near- er. Since|
!<(! A2 A2!<)!!>(! d2 cB!>)! | c2 d2 z2!p! A2 |!<(! A2 A2!<)!!>(! ^A2 AA!>)! | ^A2 B2 z2 F2 | %23
w: now I see in the|mea- sure of|all my giv- ing and|tak- ing, Thou|
 F2 d2 B2!<(! c>A!<)! | d2 d2 z2 c2 |!<(! c2 dc!<)! c2 ed | !>!d2 c2 z2!p! c2 | c2 BA B3 B | %28
w: wert my hand in the|mak- ing, the|sense and the soul of my|plea- sure; The|good I have ne'er re-|
 =c2 B2 z2"^cresc." B2 | (A2 =c)c c2 d_e | _e2 d2 z2!p! B2 | (d2 c)d D3 D | G2 A2 z2!pp! A2 | %33
w: paid thee, in|heav'n * I pray be re-|cor- ded And|all * thy love re-|ward- ed, and|
 (d2 c)d D3 D | G2 A2 z2!<(! A2!<)! | !>!A2 ^G2!>(! =G2 EA!>)! | G2 F2 z2!mf! F2 | %37
w: all * thy love re-|ward- ed, by|God, thy mas- ter that|made thee, by|
!<(! B3 d!<)!!f! d2!>(! dB!>)! |!p!!<(! (A2 B2!<)!!>(! E2 G2)!>)! |!pp! F8 |] %40
w: God, thy mas- ter that|made * * *|thee.|
V:4
!p! D,2 |!<(! F,2 D,2!<)! A,2 A,!>(!G, | G,2!>)! F,2 z2!p! D,2 |!<(! F,2 D,2!<)! !>!C,2 z!p! F, | %4
w: Since|thou, O fond- est and|tru- est, hast|loved me best and|
!>(! F,2!>)! B,,2 z2 B,,2 |[M:4/4] D,2!<(! B,,2!<)! B,3!>(! A,!>)! | !>!^G,2 G,2 z2 C,2 | %7
w: long- est, And|now with trust the|strong- est the|
!<(! F,2 F,!<)!F,!f!!>(! E,3!>)! E, | E,2 A,2 z2!p! G,2 | F,2 E,2 ^D,2!<(! D,B,,!<)! | %10
w: joy of my heart re-|new- est; Since|thou art dear- er and|
!>(! E,2 E,2!>)! z2"^cresc." E,2 | A,2 G,2 F,3 F, | G,2 G,2 z2!mf! B,2 | %13
w: dear- er while|o- ther hearts grow|cold- er, And|
"^legato"!>(! D2 CD!>)! D,3 D, | [B,,D,]2 [A,,D,]2 z2!p! A,2 | D2 CD D,3 D, | %16
w: ev- er, as love is|old- er, more|lov- ing- ly draw- est|
 [G,,D,]2 [F,,D,]2 z2 F,,2 | B,,2 E,E, A,,3 A,, | A,,2 D,2 !fermata!z2 D,2 | %19
w: near- er, more|lov- ing- ly draw- est|near- er. Since|
!<(! F,2 D,2!<)!!>(! A,2 A,G,!>)! | G,2 F,2 z2!p! D,2 |!<(! F,2 D,2!<)!!>(! C,2 C,F,!>)! | %22
w: now I see in the|mea- sure of|all my giv- ing and|
 F,2 B,,2 z2 B,,2 | D,2 B,,2 B,2!<(! A,>A,!<)! | ^G,2 G,2 z2 C,2 |!<(! F,2 F,F,!<)! E,2 E,E, | %26
w: tak- ing, Thou|wert my hand in the|mak- ing, the|sense and the soul of my|
 !>!A,2 A,2 z2!p! G,2 | F,2 F,F, B,,3 B,, | E,2 E,2 z2"^cresc." E,2 | (A,2 G,)G, F,2 F,F, | %30
w: plea- sure; The|good I have ne'er re-|paid thee, in|heav'n * I pray be re-|
 G,2 G,2 z2!p! B,2 | (D2 C)D D,3 D, | [B,,D,]2 [A,,D,]2 z2!pp! A,2 | (D2 C)D D,3 D, | %34
w: cor- ded And|all * thy love re-|ward- ed, and|all * thy love re-|
 [G,,D,]2 [F,,D,]2 z2!<(! F,,2!<)! | !>!B,,3 B,,!>(! A,,2 A,,A,,!>)! | ^A,,2 B,,2 z2!mf! F,2 | %37
w: ward- ed, by|God, thy mas- ter that|made thee, by|
!<(! B,3 A,!<)!!f! ^G,2!>(! ^G,,G,,!>)! |!p!!>(!!<(! A,,8!>)!!<)! |!pp! [D,,D,]8 |] %40
w: God, thy mas- ter that|made|thee.|

